X:8
T:RVW2/2/8 Down In The Valley
C:Mr. Broomfield, Herongate, Essex, 22 February 1904
L:1/4
Q:1/4=120
M:3/4
I:linebreak $
K:G
"^First verse""^(Editorial suggestion " (B/c/) | d B A | B e (e/e/) | d B B | e2 e | d B (B/A/) |$ 
w: It was|down in a|val- ley a young|dam- sel did|dwell she|lived with her _|
w: 'Twas _|down in the|val- ley where _|vio- lets are|gay three|gyp- sies be- *|
G E E | A E D | E2 :|"^Second verse" D | E B B | B ^c B |$ A F D | E2 D | E E F | G F E | A G A | 
w: un- cle as|all knew full|well.|Long|time she's been|mis- sing and|could not be|found; her|un- cle he|sear- ched the|coun- try a-|
w: trayed her and|stole her a-|way.|||||||||
B2 (B/c/) |$ d B/B/ A/A/ | B e e | d B B | e2 e | d B (B/A/) | G E E |$"^(a)" A E D | E2 |] 
w: round Till _|he come to see her|trus- tee be-|tween hope and|fear; the|trus- tee made _|an- swer she|has not been|here.|
w: |||||||||
"^(a) var. 1" A F D | E2 |]"^(a) var. 2" A B A | E2 |] 
w: ||||
w: ||||



